turbo.cube
TITLE "turbo"
LUT_1D_SIZE 256

0.02588 0.00304 0.04025
0.02737 0.00423 0.05229
0.02885 0.00563 0.06578
0.03033 0.00725 0.08066
0.03180 0.00908 0.09686
0.03327 0.01114 0.11432
0.03472 0.01341 0.13294
0.03615 0.01590 0.15267
0.03757 0.01862 0.17342
0.03896 0.02156 0.19512
0.04032 0.02472 0.21768
0.04166 0.02811 0.24101
0.04296 0.03171 0.26505
0.04423 0.03554 0.28970
0.04547 0.03959 0.31490
0.04666 0.04387 0.34056
0.04781 0.04836 0.36661
0.04892 0.05307 0.39297
0.04998 0.05801 0.41955
0.05099 0.06315 0.44629
0.05196 0.06852 0.47309
0.05287 0.07410 0.49991
0.05372 0.07989 0.52667
0.05453 0.08590 0.55329
0.05527 0.09211 0.57972
0.05595 0.09854 0.60587
0.05658 0.10517 0.63169
0.05714 0.11201 0.65710
0.05764 0.11905 0.68208
0.05808 0.12630 0.70653
0.05846 0.13374 0.73039
0.05877 0.14138 0.75364
0.05902 0.14922 0.77621
0.05920 0.15725 0.79804
0.05931 0.16548 0.81908
0.05936 0.17390 0.83932
0.05935 0.18249 0.85868
0.05926 0.19128 0.87711
0.05911 0.20026 0.89461
0.05890 0.20941 0.91111
0.05862 0.21874 0.92660
0.05827 0.22825 0.94103
0.05786 0.23794 0.95436
0.05736 0.24782 0.96645
0.05659 0.25795 0.97661
0.05555 0.26836 0.98473
0.05426 0.27903 0.99085
0.05274 0.28998 0.99501
0.05103 0.30120 0.99727
0.04916 0.31265 0.99771
0.04714 0.32436 0.99637
0.04501 0.33631 0.99335
0.04280 0.34850 0.98870
0.04052 0.36089 0.98253
0.03822 0.37350 0.97490
0.03589 0.38633 0.96591
0.03358 0.39934 0.95565
0.03130 0.41253 0.94418
0.02906 0.42589 0.93165
0.02689 0.43940 0.91809
0.02479 0.45304 0.90362
0.02278 0.46683 0.88835
0.02087 0.48070 0.87234
0.01906 0.49468 0.85569
0.01737 0.50874 0.83849
0.01579 0.52286 0.82082
0.01433 0.53700 0.80276
0.01299 0.55118 0.78441
0.01177 0.56536 0.76584
0.01067 0.57951 0.74714
0.00969 0.59364 0.72833
0.00881 0.60770 0.70955
0.00804 0.62168 0.69082
0.00738 0.63555 0.67224
0.00682 0.64931 0.65384
0.00635 0.66291 0.63569
0.00597 0.67633 0.61784
0.00568 0.68957 0.60033
0.00548 0.70257 0.58323
0.00536 0.71533 0.56657
0.00534 0.72783 0.55040
0.00540 0.74004 0.53475
0.00557 0.75191 0.51967
0.00585 0.76345 0.50517
0.00625 0.77462 0.49128
0.00679 0.78538 0.47805
0.00750 0.79587 0.46490
0.00838 0.80622 0.45127
0.00945 0.81642 0.43727
0.01074 0.82646 0.42293
0.01226 0.83633 0.40833
0.01405 0.84600 0.39352
0.01613 0.85549 0.37860
0.01853 0.86477 0.36360
0.02128 0.87382 0.34858
0.02440 0.88265 0.33360
0.02791 0.89124 0.31871
0.03186 0.89959 0.30396
0.03626 0.90767 0.28939
0.04114 0.91547 0.27505
0.04652 0.92299 0.26098
0.05242 0.93021 0.24721
0.05887 0.93714 0.23378
0.06587 0.94375 0.22072
0.07343 0.95003 0.20805
0.08157 0.95597 0.19580
0.09028 0.96156 0.18399
0.09957 0.96680 0.17263
0.10944 0.97167 0.16173
0.11987 0.97616 0.15132
0.13086 0.98026 0.14139
0.14238 0.98397 0.13194
0.15441 0.98726 0.12299
0.16693 0.99015 0.11453
0.17990 0.99260 0.10656
0.19329 0.99462 0.09907
0.20705 0.99622 0.09206
0.22112 0.99734 0.08551
0.23547 0.99802 0.07943
0.25003 0.99822 0.07379
0.26475 0.99796 0.06858
0.27955 0.99721 0.06379
0.29437 0.99598 0.05941
0.30912 0.99427 0.05542
0.32374 0.99205 0.05180
0.33815 0.98934 0.04854
0.35225 0.98611 0.04563
0.36596 0.98238 0.04305
0.37930 0.97811 0.04078
0.39281 0.97325 0.03881
0.40660 0.96782 0.03709
0.42066 0.96182 0.03561
0.43495 0.95526 0.03435
0.44948 0.94817 0.03328
0.46423 0.94060 0.03238
0.47918 0.93254 0.03165
0.49432 0.92398 0.03107
0.50964 0.91501 0.03062
0.52510 0.90560 0.03030
0.54071 0.89579 0.03010
0.55642 0.88559 0.02999
0.57225 0.87504 0.02999
0.58814 0.86416 0.03007
0.60408 0.85294 0.03024
0.62006 0.84143 0.03048
0.63605 0.82964 0.03078
0.65202 0.81761 0.03115
0.66795 0.80532 0.03156
0.68380 0.79284 0.03203
0.69957 0.78014 0.03253
0.71520 0.76727 0.03306
0.73070 0.75425 0.03361
0.74601 0.74109 0.03418
0.76111 0.72781 0.03476
0.77600 0.71443 0.03533
0.79059 0.70097 0.03589
0.80489 0.68745 0.03643
0.81887 0.67388 0.03694
0.83248 0.66029 0.03741
0.84572 0.64667 0.03782
0.85852 0.63306 0.03818
0.87088 0.61948 0.03847
0.88275 0.60592 0.03868
0.89410 0.59243 0.03879
0.90491 0.57899 0.03881
0.91513 0.56562 0.03872
0.92476 0.55234 0.03851
0.93372 0.53917 0.03817
0.94205 0.52611 0.03770
0.94965 0.51318 0.03709
0.95653 0.50039 0.03633
0.96274 0.48751 0.03546
0.96836 0.47438 0.03451
0.97338 0.46101 0.03350
0.97783 0.44745 0.03242
0.98168 0.43375 0.03129
0.98497 0.41992 0.03011
0.98768 0.40604 0.02890
0.98980 0.39211 0.02766
0.99137 0.37820 0.02639
0.99240 0.36431 0.02512
0.99286 0.35050 0.02384
0.99280 0.33679 0.02255
0.99218 0.32320 0.02128
0.99107 0.30978 0.02001
0.98940 0.29654 0.01877
0.98726 0.28352 0.01755
0.98460 0.27071 0.01635
0.98146 0.25817 0.01519
0.97785 0.24591 0.01407
0.97377 0.23392 0.01299
0.96924 0.22225 0.01195
0.96427 0.21091 0.01095
0.95885 0.19989 0.01001
0.95303 0.18923 0.00911
0.94678 0.17892 0.00826
0.94016 0.16896 0.00747
0.93315 0.15939 0.00672
0.92577 0.15018 0.00603
0.91803 0.14135 0.00539
0.90994 0.13290 0.00480
0.90154 0.12483 0.00426
0.89281 0.11713 0.00376
0.88376 0.10981 0.00331
0.87445 0.10287 0.00291
0.86483 0.09629 0.00254
0.85496 0.09007 0.00222
0.84485 0.08421 0.00193
0.83449 0.07870 0.00168
0.82391 0.07352 0.00146
0.81310 0.06868 0.00126
0.80211 0.06415 0.00110
0.79094 0.05994 0.00096
0.77956 0.05602 0.00084
0.76795 0.05230 0.00073
0.75610 0.04877 0.00063
0.74399 0.04541 0.00055
0.73165 0.04223 0.00047
0.71907 0.03922 0.00041
0.70629 0.03637 0.00035
0.69329 0.03367 0.00030
0.68010 0.03112 0.00025
0.66673 0.02871 0.00021
0.65317 0.02645 0.00018
0.63946 0.02431 0.00015
0.62559 0.02230 0.00012
0.61158 0.02042 0.00010
0.59743 0.01865 0.00008
0.58316 0.01700 0.00007
0.56878 0.01546 0.00005
0.55431 0.01402 0.00004
0.53975 0.01267 0.00003
0.52510 0.01142 0.00003
0.51041 0.01027 0.00002
0.49567 0.00919 0.00002
0.48088 0.00820 0.00001
0.46607 0.00729 0.00001
0.45126 0.00645 0.00001
0.43646 0.00568 0.00001
0.42166 0.00498 0.00001
0.40689 0.00434 0.00001
0.39216 0.00376 0.00001
0.37750 0.00323 0.00001
0.36290 0.00276 0.00001
0.34840 0.00234 0.00001
0.33399 0.00196 0.00001
0.31970 0.00163 0.00001
0.30553 0.00133 0.00001
0.29151 0.00108 0.00001
0.27764 0.00085 0.00001
0.26395 0.00066 0.00001
0.25044 0.00050 0.00002
0.23714 0.00037 0.00002
0.22405 0.00026 0.00003
0.21119 0.00018 0.00004
0.19858 0.00011 0.00004
